packages/icons/src/bar-chart.svg

<svg width="15" height="15" viewBox="0 0 15 15" fill="none" xmlns="http://www.w3.org/2000/svg">
  <path
    fill-rule="evenodd"
    clip-rule="evenodd"
    d="M11.5 1C11.7761 1 12 1.22386 12 1.5V13.5C12 13.7761 11.7761 14 11.5 14C11.2239 14 11 13.7761 11 13.5V1.5C11 1.22386 11.2239 1 11.5 1ZM9.5 3C9.77614 3 10 3.22386 10 3.5V13.5C10 13.7761 9.77614 14 9.5 14C9.22386 14 9 13.7761 9 13.5V3.5C9 3.22386 9.22386 3 9.5 3ZM13.5 3C13.7761 3 14 3.22386 14 3.5V13.5C14 13.7761 13.7761 14 13.5 14C13.2239 14 13 13.7761 13 13.5V3.5C13 3.22386 13.2239 3 13.5 3ZM5.5 4C5.77614 4 6 4.22386 6 4.5V13.5C6 13.7761 5.77614 14 5.5 14C5.22386 14 5 13.7761 5 13.5V4.5C5 4.22386 5.22386 4 5.5 4ZM1.5 5C1.77614 5 2 5.22386 2 5.5V13.5C2 13.7761 1.77614 14 1.5 14C1.22386 14 1 13.7761 1 13.5V5.5C1 5.22386 1.22386 5 1.5 5ZM7.5 5C7.77614 5 8 5.22386 8 5.5V13.5C8 13.7761 7.77614 14 7.5 14C7.22386 14 7 13.7761 7 13.5V5.5C7 5.22386 7.22386 5 7.5 5ZM3.5 7C3.77614 7 4 7.22386 4 7.5V13.5C4 13.7761 3.77614 14 3.5 14C3.22386 14 3 13.7761 3 13.5V7.5C3 7.22386 3.22386 7 3.5 7Z"
    fill="currentColor"
  />
</svg>

<svg xmlns="http://www.w3.org/2000/svg" width="15" height="15" fill="none"><path fill="currentColor" fill-rule="evenodd" d="M11.5 1a.5.5 0 0 1 .5.5v12a.5.5 0 0 1-1 0v-12a.5.5 0 0 1 .5-.5m-2 2a.5.5 0 0 1 .5.5v10a.5.5 0 0 1-1 0v-10a.5.5 0 0 1 .5-.5m4 0a.5.5 0 0 1 .5.5v10a.5.5 0 0 1-1 0v-10a.5.5 0 0 1 .5-.5m-8 1a.5.5 0 0 1 .5.5v9a.5.5 0 0 1-1 0v-9a.5.5 0 0 1 .5-.5m-4 1a.5.5 0 0 1 .5.5v8a.5.5 0 0 1-1 0v-8a.5.5 0 0 1 .5-.5m6 0a.5.5 0 0 1 .5.5v8a.5.5 0 0 1-1 0v-8a.5.5 0 0 1 .5-.5m-4 2a.5.5 0 0 1 .5.5v6a.5.5 0 0 1-1 0v-6a.5.5 0 0 1 .5-.5" clip-rule="evenodd"/></svg>
